X:4939
T:Paddy Fahys reel (number 6)
O:england
M:4/4
L:1/8
C:Paddy Fahy
K:Gdor
GA |: BG~G2 BGdc | BG~G2 AFFA | BGGA Bcde | fdcB  AFFA |
BG~G2 BGdc | BdGB AFFA | BGGA Bcde | fdcB AFFA :|
|: B2fB gBfB | BBfB cAFA | B2fB gBfB | c_edc BGFG |
~B2fB gBfB | B2f2 cAFA | B2fB gBfB | c_edc BGFG :||


